X: 20949
T: Joys Of Quebec
R: reel
M: 4/4
K: Amajor
ee|:"A"e2 cc c2 ee|e2 cc c2 ee|f2 e2 d2 c2|"E7"d2 BB B2 dd|d2 BB B2 dd|
"E7"d2 BB B2 d2|1 g2 f2 e2 d2|"A"c6 ee:|2 g2 f2 e2 g2|"A"a6 cd||
"A"e4 "D"f4|"A"e6 AB|c4 "D"d4|"A"c6 AB|c2 A2 G2 A2|
[1 "E7"B6 Bd|g2 f2 e2 d2|"A"c6 cd:|2 "E7"B6 Bc|d2 e2 f2 g2|"A"a6 ee||

